X:15581
T:Sleepy Maggie
R:Reel
A:Scotland
M:C|
L:1/8
K:Edor
g |: f2 (Bb) fBde | f2 (Ba) eAce | f2 (Bb) fBde | f^gaf eBde :|
fBdB fBde | fBdB eAce | fBdB fBde | f^gaf eAce | 
fBdB fBde | fBdB eAce | fBbB aB^gB | f^gaf eAce ||
%%newpage
